X: 20761
T: KENMURE'S ON AND AWA', WILLIE.
O: Jacobite air.
Q: "With spirit, but not too fast."
%R: air, jig
B: W. Hamilton "Universal Tune-Book" Vol. 2 Glasgow 1846 p.76 #1
S: http://s3-eu-west-1.amazonaws.com/itma.dl.printmaterial/book_pdfs/hamiltonvol2web.pdf
Z: 2016 John Chambers <jc:trillian.mit.edu>
M: 6/8
L: 1/8
K: G
% - - - - - - - - - - - - - - - - - - - - - - - - -
B |\
G>AB g>dB | ded d2B |\
G>AB g>dB | ABA A2B |\
GA>B g>dB | d>ef g>fe |\
d>cB c>BA | GAG G2 ||
b/a/ |\
g2d e>dB | ded d2b/a/ |\
g2d e>dB | A>BA A2b/a/ |\
g2d e>dB | d>ef g>fe |\
d>cB c>BA | GAG G2 |]
% - - - - - - - - - - - - - - - - - - - - - - - - -

%%sep 1 1 500
%%sep 1 1 500

